_inc/images/systems/logos/sg-1000.svg

<svg viewBox="0 0 264 38" xmlns="http://www.w3.org/2000/svg">
    <path d="M80.217 68.958c0 5.145-1.56 9.297-4.68 12.462-3.123 3.162-7.338 4.743-12.651 4.743H1.395V68.958h61.491V51.75H17.082c-5.061 0-9.174-1.602-12.336-4.809C1.581 43.737 0 39.603 0 34.542V17.205c0-2.445.465-4.722 1.392-6.828.927-2.109 2.172-3.924 3.732-5.442a17.724 17.724 0 0 1 5.439-3.606A16.41 16.41 0 0 1 17.082 0H74.4v17.205H17.082v17.337h45.804c2.445 0 4.722.444 6.831 1.329s3.945 2.088 5.505 3.606c1.56 1.518 2.781 3.33 3.669 5.439.885 2.109 1.326 4.389 1.326 6.834Zm99.963 17.205h-68.955c-11.475 0-17.211-5.733-17.211-17.205V17.205c0-2.445.465-4.722 1.392-6.828.927-2.109 2.172-3.924 3.735-5.442a17.76 17.76 0 0 1 5.439-3.606C106.647.444 108.861 0 111.225 0h66.045v17.205h-66.045v51.753h51.621V51.75h-34.29V34.542h51.624Zm64.737-34.413h-51.624V34.542h51.624Zm59.931 34.413h-51.624V68.958h17.331V17.205h-17.331V0h34.542v68.958h17.082ZM333.471 0c-2.277 0-4.443.441-6.51 1.326a17.724 17.724 0 0 0-5.439 3.606c-1.56 1.518-2.805 3.33-3.735 5.439-.927 2.109-1.392 4.386-1.392 6.831v51.756c0 11.472 5.691 17.205 17.076 17.205h51.63c11.469 0 17.202-5.733 17.202-17.205V17.202c0-2.358-.441-4.587-1.326-6.696-.885-2.106-2.103-3.945-3.663-5.505-1.56-1.563-3.399-2.79-5.508-3.675C389.697.441 387.462 0 385.101 0h-51.63Zm0 17.202h51.63v51.756h-51.63V17.202ZM432.324 0c-2.277 0-4.443.441-6.51 1.326a17.724 17.724 0 0 0-5.439 3.606c-1.56 1.518-2.805 3.33-3.735 5.439-.927 2.109-1.392 4.386-1.392 6.831v51.756c0 11.472 5.691 17.205 17.076 17.205h51.63c11.469 0 17.202-5.733 17.202-17.205V17.202c0-2.358-.438-4.587-1.326-6.696a17.093 17.093 0 0 0-3.672-5.505 17.017 17.017 0 0 0-5.508-3.675C488.541.441 486.315 0 483.954 0h-51.63Zm0 17.202h51.63v51.756h-51.63V17.202ZM531.177 0c-2.274 0-4.452.441-6.522 1.326a17.71 17.71 0 0 0-5.436 3.606c-1.56 1.518-2.805 3.33-3.735 5.439-.927 2.109-1.392 4.386-1.392 6.831v51.756c0 11.472 5.7 17.205 17.085 17.205h51.621c11.469 0 17.202-5.733 17.202-17.205V17.202c0-2.358-.441-4.587-1.326-6.696-.885-2.106-2.103-3.945-3.663-5.505-1.56-1.563-3.399-2.79-5.508-3.675C587.394.441 585.156 0 582.798 0h-51.621Zm0 17.202h51.621v51.756h-51.621V17.202Z" style="fill:#fff" transform="scale(.44 .44103)"/>
</svg>

<?xml version="1.0" encoding="utf-8"?>
<svg version="1.1" viewBox="0 0 264 38" xmlns="http://www.w3.org/2000/svg">
  <g transform="matrix(0.44, 0, 0, 0.441025, 0, 0)">
    <path d="M 80.217 68.958 C 80.217 74.103 78.657 78.255 75.537 81.42 C 72.414 84.582 68.199 86.163 62.886 86.163 L 1.395 86.163 L 1.395 68.958 L 62.886 68.958 L 62.886 51.75 L 17.082 51.75 C 12.021 51.75 7.908 50.148 4.746 46.941 C 1.581 43.737 0 39.603 0 34.542 L 0 17.205 C 0 14.76 0.465 12.483 1.392 10.377 C 2.319 8.268 3.564 6.453 5.124 4.935 C 6.684 3.417 8.496 2.214 10.563 1.329 C 12.633 0.444 14.805 0 17.082 0 L 74.4 0 L 74.4 17.205 L 17.082 17.205 L 17.082 34.542 L 62.886 34.542 C 65.331 34.542 67.608 34.986 69.717 35.871 C 71.826 36.756 73.662 37.959 75.222 39.477 C 76.782 40.995 78.003 42.807 78.891 44.916 C 79.776 47.025 80.217 49.305 80.217 51.75 Z" style="fill: rgb(255, 255, 255);"/>
    <path d="M 180.18 86.163 L 111.225 86.163 C 99.75 86.163 94.014 80.43 94.014 68.958 L 94.014 17.205 C 94.014 14.76 94.479 12.483 95.406 10.377 C 96.333 8.268 97.578 6.453 99.141 4.935 C 100.701 3.417 102.516 2.214 104.58 1.329 C 106.647 0.444 108.861 0 111.225 0 L 177.27 0 L 177.27 17.205 L 111.225 17.205 L 111.225 68.958 L 162.846 68.958 L 162.846 51.75 L 128.556 51.75 L 128.556 34.542 L 180.18 34.542 Z" style="fill: rgb(255, 255, 255);"/>
    <path d="M 244.917 51.75 L 193.293 51.75 L 193.293 34.542 L 244.917 34.542 Z" style="fill: rgb(255, 255, 255);"/>
    <path d="M 304.848 86.163 L 253.224 86.163 L 253.224 68.958 L 270.555 68.958 L 270.555 17.205 L 253.224 17.205 L 253.224 0 L 287.766 0 L 287.766 68.958 L 304.848 68.958 Z" style="fill: rgb(255, 255, 255);"/>
    <path d="M 333.471 0 C 331.194 0 329.028 0.441 326.961 1.326 C 324.894 2.211 323.082 3.414 321.522 4.932 C 319.962 6.45 318.717 8.262 317.787 10.371 C 316.86 12.48 316.395 14.757 316.395 17.202 L 316.395 68.958 C 316.395 80.43 322.086 86.163 333.471 86.163 L 385.101 86.163 C 396.57 86.163 402.303 80.43 402.303 68.958 L 402.303 17.202 C 402.303 14.844 401.862 12.615 400.977 10.506 C 400.092 8.4 398.874 6.561 397.314 5.001 C 395.754 3.438 393.915 2.211 391.806 1.326 C 389.697 0.441 387.462 0 385.101 0 L 333.471 0 Z M 333.471 17.202 L 385.101 17.202 L 385.101 68.958 L 333.471 68.958 L 333.471 17.202 Z" style="fill: rgb(255, 255, 255);"/>
    <path d="M 432.324 0 C 430.047 0 427.881 0.441 425.814 1.326 C 423.747 2.211 421.935 3.414 420.375 4.932 C 418.815 6.45 417.57 8.262 416.64 10.371 C 415.713 12.48 415.248 14.757 415.248 17.202 L 415.248 68.958 C 415.248 80.43 420.939 86.163 432.324 86.163 L 483.954 86.163 C 495.423 86.163 501.156 80.43 501.156 68.958 L 501.156 17.202 C 501.156 14.844 500.718 12.615 499.83 10.506 C 498.945 8.4 497.715 6.561 496.158 5.001 C 494.595 3.438 492.759 2.211 490.65 1.326 C 488.541 0.441 486.315 0 483.954 0 L 432.324 0 Z M 432.324 17.202 L 483.954 17.202 L 483.954 68.958 L 432.324 68.958 L 432.324 17.202 Z" style="fill: rgb(255, 255, 255);"/>
    <path d="M 531.177 0 C 528.903 0 526.725 0.441 524.655 1.326 C 522.588 2.211 520.779 3.414 519.219 4.932 C 517.659 6.45 516.414 8.262 515.484 10.371 C 514.557 12.48 514.092 14.757 514.092 17.202 L 514.092 68.958 C 514.092 80.43 519.792 86.163 531.177 86.163 L 582.798 86.163 C 594.267 86.163 600 80.43 600 68.958 L 600 17.202 C 600 14.844 599.559 12.615 598.674 10.506 C 597.789 8.4 596.571 6.561 595.011 5.001 C 593.451 3.438 591.612 2.211 589.503 1.326 C 587.394 0.441 585.156 0 582.798 0 L 531.177 0 Z M 531.177 17.202 L 582.798 17.202 L 582.798 68.958 L 531.177 68.958 L 531.177 17.202 Z" style="fill: rgb(255, 255, 255);"/>
  </g>
</svg>
